src/assets/icons/letters,simple,serif-z.svg

<svg width="48" height="48" viewBox="0 0 48 48" fill="none" xmlns="http://www.w3.org/2000/svg">
<rect opacity="0.2" x="5" y="5" width="38" height="38" rx="4" fill="black"/>
<path d="M34.4569 36H12.4969V35.31L27.5869 14.46H19.9969C18.5169 14.46 17.3969 14.83 16.6369 15.57C15.8969 16.31 15.3869 17.46 15.1069 19.02H13.9369L14.4169 12.9H33.8569V13.59L18.9169 34.32H27.4969C28.5769 34.32 29.4569 34.23 30.1369 34.05C30.8369 33.87 31.3969 33.55 31.8169 33.09C32.2569 32.63 32.5969 32.02 32.8369 31.26C33.0769 30.5 33.2869 29.53 33.4669 28.35H34.8469L34.4569 36Z" fill="black"/>
</svg>

<svg xmlns="http://www.w3.org/2000/svg" width="48" height="48" fill="none" viewBox="0 0 48 48">
  <rect width="38" height="38" x="5" y="5" fill="#000" opacity=".2" rx="4"/>
  <path fill="#000" d="M34.457 36h-21.96v-.69l15.09-20.85h-7.59c-1.48 0-2.6.37-3.36 1.11-.74.74-1.25 1.89-1.53 3.45h-1.17l.48-6.12h19.44v.69l-14.94 20.73h8.58c1.08 0 1.96-.09 2.64-.27.7-.18 1.26-.5 1.68-.96.44-.46.78-1.07 1.02-1.83s.45-1.73.63-2.91h1.38l-.39 7.65z"/>
</svg>
